static/img/icons-strokes.svg

<svg width="240" height="240" xmlns="http://www.w3.org/2000/svg" xmlns:xlink="http://www.w3.org/1999/xlink"><defs><path d="M119.5 90v60" id="a"/></defs><g fill="none" fill-rule="evenodd"><path fill="#FFF" d="M0 0h240v240H0z"/><g stroke="#DFDFDF"><path d="M39.5 39.5h160v160h-160z"/><g stroke-linecap="square"><path d="M49.5 39.5v160M59.5 39.5v160M69.5 39.5v160M79.5 39.5v160M89.5 39.5v160M99.5 39.5v160M109.5 39.5v160M119.5 39.5v160M129.5 39.5v160M139.5 39.5v160M149.5 39.5v160M159.5 39.5v160M169.5 39.5v160M179.5 39.5v160M189.5 39.5v160M199.5 49.5h-160M199.5 59.5h-160M199.5 69.5h-160M199.5 79.5h-160M199.5 89.5h-160M199.5 99.5h-160M199.5 109.5h-160M199.5 119.5h-160M199.5 129.5h-160M199.5 139.5h-160M199.5 149.5h-160M199.5 159.5h-160M199.5 169.5h-160M199.5 179.5h-160M199.5 189.5h-160"/></g></g><path d="M69 49h101c11.046 0 20 8.954 20 20v101c0 11.046-8.954 20-20 20H69c-11.046 0-20-8.954-20-20V69c0-11.046 8.954-20 20-20zm1 21v99h99V70H70z" fill-opacity=".3" fill="#6E49CB" fill-rule="nonzero"/><g stroke-linecap="round" stroke="#6E49CB"><use stroke-opacity=".3" stroke-width="21" xlink:href="#a"/><use xlink:href="#a"/></g><path d="M109.5 99.5h20V89a9.5 9.5 0 0 0-9.5-9.5h-1a9.5 9.5 0 0 0-9.5 9.5v10.5zM109.5 49.5h20v20h-20z" stroke="#DB3B21" fill-opacity=".499" fill="#FC6D26"/><g stroke="#6E49CB"><path d="M49.5 49.5h140v140h-140z"/><path fill="#FFF" d="M47.5 47.5h4v4h-4zM117.5 47.5h4v4h-4zM117.5 87.5h4v4h-4zM117.5 147.5h4v4h-4zM187.5 47.5h4v4h-4zM47.5 117.5h4v4h-4zM187.5 117.5h4v4h-4zM47.5 187.5h4v4h-4zM117.5 187.5h4v4h-4zM187.5 187.5h4v4h-4z"/></g></g></svg>

<svg width="240" height="240" viewBox="0 0 240 240" fill="none" xmlns="http://www.w3.org/2000/svg"><path fill="#fff" d="M0 0h240v240H0z"/><path stroke="#DFDFDF" d="M39.5 39.5h160v160h-160z"/><path d="M49.5 39.5v160m10-160v160m10-160v160m10-160v160m10-160v160m10-160v160m10-160v160m10-160v160m10-160v160m10-160v160m10-160v160m10-160v160m10-160v160m10-160v160m10-160v160m10-150h-160m160 10h-160m160 10h-160m160 10h-160m160 10h-160m160 10h-160m160 10h-160m160 10h-160m160 10h-160m160 10h-160m160 10h-160m160 10h-160m160 10h-160m160 10h-160m160 10h-160" stroke="#DFDFDF" stroke-linecap="square"/><path fill-rule="evenodd" clip-rule="evenodd" d="M170 49H69c-11.046 0-20 8.954-20 20v101c0 11.046 8.954 20 20 20h101c11.046 0 20-8.954 20-20V69c0-11.046-8.954-20-20-20ZM65 174V65h109v109H65Z" fill="#6E49CB" fill-opacity=".3"/><path d="M119.5 90v60" stroke="#6E49CB" stroke-opacity=".3" stroke-width="13" stroke-linecap="round"/><path d="M119.5 90v60" stroke="#6E49CB" stroke-opacity=".3" stroke-linecap="round"/><path d="M119.5 90v60" stroke="#6E49CB" stroke-linecap="round"/><path d="M125.5 89.5v6h-12v-6a6 6 0 1 1 12 0Zm-13-40h14v14h-14z" fill="#FC6D26" fill-opacity=".499" stroke="#DB3B21"/><path stroke="#6E49CB" d="M49.5 49.5h140v140h-140z"/><path fill="#fff" stroke="#6E49CB" d="M47.5 47.5h4v4h-4zm70 0h4v4h-4zm0 40h4v4h-4zm0 60h4v4h-4zm70-100h4v4h-4zm-140 70h4v4h-4zm140 0h4v4h-4zm-140 70h4v4h-4zm70 0h4v4h-4zm70 0h4v4h-4z"/></svg>
